X:24
T:Stepney Cakes and Ale
T:John Malchairs Third Collection of Tunes
%%VWML:Malchair-3619-p24
F:https://www.vwml.org/record/Malchair/3619/p24
F:www.vwml.org/topics/historic-dance-and-tune-books/Malchair
Z:Peter Dunk Feb 2020
M:9/4
L:1/4
K:D
D2d c3/B/A _c3|GEC C2D EGE|D2d c3/B/A d3|AFD D2F EGE||
D2a g3/f/e _c3|GEC C2D EGE|D2a g3/f/e d3|AFD D2F EGE|
afd ecA _c3|GEC C2D EGE|afd ecA d3|AFD D2F EGE|]
W:
T:Bunter's Delight
T:John Malchairs Third Collection of Tunes
F:https://www.vwml.org/record/Malchair/3619/p24
F:www.vwml.org/topics/historic-dance-and-tune-books/Malchair
Z:Peter Dunk Feb 2020
M:9/4
L:1/4
K:Gm
G2g f^ed f3|cAF F2A cAF|G2b ag^f g3|dBG G2B dBG|
g2d ^e2c f3|cAF F2A cAF|G2b ag^f g3|dBG G2B dBG||
G2b a2g f3|cAF F2A cAF|G2b d^fa g3|dBG G2B dBG|]

